COLOR/action 16/16/document-save.svg

<svg height="16" viewBox="0 0 4.233125 4.233125" width="16" xmlns="http://www.w3.org/2000/svg"><g enable-background="new" fill="#45a925" stroke-width=".642857" transform="matrix(0 -.30866537 -.30866537 0 22.931799 117.190125)"><path d="m373.66722 63.150534-5.57144 4.285715 5.57144 4.285713v-2.857142h5.57142v-2.857143h-5.57142z"/><path d="m-367.66724-71.721962h.857143v8.571428h-.857143z" stroke-width=".55102" transform="scale(-1)"/><g transform="matrix(0 -.85714284 -.85714284 0 379.66723 74.293398)"><path d="m6.3339844.5v.5h3.3320312v-.5zm-3.3339844 6.5.3847656.5h2.9492188v-.5zm6.6660156 0v.5h2.9492184l.384766-.5z" fill="#fff" opacity=".3" stroke-width=".75"/><path d="m3 7 5 6.5 5-6.5h-.384766l-4.615234 6-4.6152344-6z" fill="#000" opacity=".2" stroke-width=".75"/><path d="m3 14v.199219h10v-.199219z" fill="#fff" opacity=".3" stroke-width=".642857"/></g><path d="m366.98084 71.721969h-.17076v-8.571428h.17076z" fill="#000" opacity=".2" stroke-width=".55102"/></g></svg>

<?xml version="1.0" encoding="UTF-8" standalone="no"?>
<svg
   xmlns:dc="http://purl.org/dc/elements/1.1/"
   xmlns:cc="http://creativecommons.org/ns#"
   xmlns:rdf="http://www.w3.org/1999/02/22-rdf-syntax-ns#"
   xmlns:svg="http://www.w3.org/2000/svg"
   xmlns="http://www.w3.org/2000/svg"
   xmlns:sodipodi="http://sodipodi.sourceforge.net/DTD/sodipodi-0.dtd"
   xmlns:inkscape="http://www.inkscape.org/namespaces/inkscape"
   height="16"
   viewBox="0 0 4.233125 4.233125"
   width="16"
   version="1.1"
   id="svg8"
   sodipodi:docname="document-save.svg"
   inkscape:version="0.92.4 (5da689c313, 2019-01-14)">
  <metadata
     id="metadata14">
    <rdf:RDF>
      <cc:Work
         rdf:about="">
        <dc:format>image/svg+xml</dc:format>
        <dc:type
           rdf:resource="http://purl.org/dc/dcmitype/StillImage" />
      </cc:Work>
    </rdf:RDF>
  </metadata>
  <defs
     id="defs12" />
  <sodipodi:namedview
     pagecolor="#ffffff"
     bordercolor="#808080"
     borderopacity="1"
     objecttolerance="10"
     gridtolerance="10"
     guidetolerance="10"
     inkscape:pageopacity="0"
     inkscape:pageshadow="2"
     inkscape:window-width="1920"
     inkscape:window-height="1016"
     id="namedview10"
     showgrid="false"
     inkscape:zoom="57.074835"
     inkscape:cx="8.0000041"
     inkscape:cy="8.1500046"
     inkscape:window-x="0"
     inkscape:window-y="27"
     inkscape:window-maximized="1"
     inkscape:current-layer="g6" />
  <g
     enable-background="new"
     fill="#45a925"
     stroke-width=".642857"
     transform="matrix(0 -.30866537049 -.30866537049 0 22.93179922534 117.19012517674)"
     id="g6">
    <path
       d="m373.66722 63.150534-5.57144 4.285715 5.57144 4.285713v-2.857142h5.57142v-2.857143h-5.57142z"
       id="path2" />
    <path
       d="m-367.66724-71.721962h.857143v8.571428h-.857143z"
       id="path4"
       stroke-width=".55102"
       transform="scale(-1)" />
    <path
       style="stroke-width:0.74999988;fill:#ffffff;fill-opacity:1;opacity:0.3"
       d="M 6.3339844 0.5 L 6.3339844 1 L 9.6660156 1 L 9.6660156 0.5 L 6.3339844 0.5 z M 3 7 L 3.3847656 7.5 L 6.3339844 7.5 L 6.3339844 7 L 3 7 z M 9.6660156 7 L 9.6660156 7.5 L 12.615234 7.5 L 13 7 L 9.6660156 7 z "
       transform="matrix(0,-0.85714284,-0.85714284,0,379.66723,74.293398)"
       id="path833" />
    <path
       style="stroke-width:0.74999988;fill:#000000;fill-opacity:1;opacity:0.2"
       d="M 3 7 L 8 13.5 L 13 7 L 12.615234 7 L 8 13 L 3.3847656 7 L 3 7 z "
       transform="matrix(0,-0.85714284,-0.85714284,0,379.66723,74.293398)"
       id="path838" />
    <path
       style="stroke-width:0.64285672;fill:#ffffff;fill-opacity:1;opacity:0.3"
       d="M 3 14 L 3 14.199219 L 13 14.199219 L 13 14 L 3 14 z "
       id="path843"
       transform="matrix(0,-0.85714284,-0.85714284,0,379.66723,74.293398)" />
    <path
       id="path848"
       d="m 366.98084,71.721969 h -0.17076 v -8.571428 h 0.17076 z"
       style="opacity:0.2;fill:#000000;fill-opacity:1;stroke-width:0.55102003"
       inkscape:connector-curvature="0" />
  </g>
</svg>
